X:37
T:Silver Spire, The
R:reel
E:7
M:C|
I:speed 350
K:D
D2(3FED FA~A2|dcde fdAF|~G2BG FADF|(3GFE FD ~E3F|\
D2(3FED FA~A2|dcde fdAF|GABG FADF|EA,CE D3 z:|*
A,B,CD EFGE|(3FED EF GABc|dcBA Bcde|fdgf e3A|\
defd ceAc|dcdB AFDF|GABG FADF|EA,CE D3z:|**
<end>
<start>
